data/kode-mono.svg

<svg width="75.6" height="17.92" viewBox="0 0 75.6 17.92" xmlns="http://www.w3.org/2000/svg"><path transform="translate(0 13.72) scale(.014 -.014)" d="M451 700 109 345V700H29V0H109V241L231 369L485 0H571L282 422L556 700Z"/><path transform="translate(8.4 13.72) scale(.014 -.014)" d="m160 531h283l80-120v-328l-80-83h-282l-81 120v328zm-1-401 40-58h212l30 32v298l-38 57h-213l-31-33z"/><path transform="translate(16.8 13.72) scale(.014 -.014)" d="m442 749h81v-749h-81v48l-80-48h-199l-83 121v326l81 85h200l81-48zm-281-618 38-58h214l29 30v299l-38 57h-212l-31-32z"/><path transform="translate(25.2 13.72) scale(.014 -.014)" d="m158 531-80-83v-328l81-120h280l70 72-44 55-56-55h-212l-39 58v112h198l165 170-83 119zm0-104 32 32h211l26-39-101-106h-168z"/><path transform="translate(42 13.72) scale(.014 -.014)" d="m79 700v-700h80v544l96-142v-2h87v91l99 104v-595h81v700h-81l-177-183-105 155v28z"/><path transform="translate(50.4 13.72) scale(.014 -.014)" d="m160 531h283l80-120v-328l-80-83h-282l-81 120v328zm-1-401 40-58h212l30 32v298l-38 57h-213l-31-33z"/><path transform="translate(58.8 13.72) scale(.014 -.014)" d="m79 531v-531h80v427l31 32h213l38-56v-403h81v413l-81 118h-201l-81-48v48z"/><path transform="translate(67.2 13.72) scale(.014 -.014)" d="m160 531h283l80-120v-328l-80-83h-282l-81 120v328zm-1-401 40-58h212l30 32v298l-38 57h-213l-31-33z"/></svg>

<?xml version="1.0" encoding="utf-8" ?>
<svg baseProfile="tiny" height="100%" version="1.2" width="100%" xmlns="http://www.w3.org/2000/svg" xmlns:ev="http://www.w3.org/2001/xml-events" xmlns:xlink="http://www.w3.org/1999/xlink"><defs /><g><path d="M451 700 109 345V700H29V0H109V241L231 369L485 0H571L282 422L556 700Z" transform="translate(0.0, 72) scale(0.072, -0.072)" /><path d="M160 531H443L523 411V83L443 0H161L80 120V448ZM159 130 199 72H411L441 104V402L403 459H190L159 426Z" transform="translate(43.199999999999996, 72) scale(0.072, -0.072)" /><path d="M442 749H523V0H442V48L362 0H163L80 121V447L161 532H361L442 484ZM161 131 199 73H413L442 103V402L404 459H192L161 427Z" transform="translate(86.39999999999999, 72) scale(0.072, -0.072)" /><path d="M158 531 78 448V120L159 0H439L509 72L465 127L409 72H197L158 130V242H356L521 412L438 531ZM158 427 190 459H401L427 420L326 314H158Z" transform="translate(129.6, 72) scale(0.072, -0.072)" /><path d="M79 700V0H159V544L255 402V400H342V491L441 595V0H522V700H441L264 517L159 672V700Z" transform="translate(215.99999999999997, 72) scale(0.072, -0.072)" /><path d="M160 531H443L523 411V83L443 0H161L80 120V448ZM159 130 199 72H411L441 104V402L403 459H190L159 426Z" transform="translate(259.2, 72) scale(0.072, -0.072)" /><path d="M79 531V0H159V427L190 459H403L441 403V0H522V413L441 531H240L159 483V531Z" transform="translate(302.4, 72) scale(0.072, -0.072)" /><path d="M160 531H443L523 411V83L443 0H161L80 120V448ZM159 130 199 72H411L441 104V402L403 459H190L159 426Z" transform="translate(345.59999999999997, 72) scale(0.072, -0.072)" /></g></svg>
